X: 8826
T: Cuil Aodha, The
R: polka
M: 2/4
K: Amajor
|Ac EF|A>G Af|ec BA|e/f/e/c/ Bc/B/|
Ac EF|A>G Af|ec BA/B/|cA A2:|
|:ce ce|a>g af|ec BA|e/f/e/c/ BA/B/|
ce ce|a>g af|ec BA/B/|cA A2:|

